svg/color/byzusd.svg

<?xml version="1.0" encoding="UTF-8"?>
<svg xmlns="http://www.w3.org/2000/svg" xmlns:xlink="http://www.w3.org/1999/xlink" width="500px" height="500px" viewBox="0 0 500 500" version="1.1">
<defs>
<clipPath id="clip1">
  <path d="M 83.332031 0 L 416.667969 0 C 462.691406 0 500 37.308594 500 83.332031 L 500 416.667969 C 500 462.691406 462.691406 500 416.667969 500 L 83.332031 500 C 37.308594 500 0 462.691406 0 416.667969 L 0 83.332031 C 0 37.308594 37.308594 0 83.332031 0 Z M 83.332031 0 "/>
</clipPath>
<clipPath id="clip2">
  <path d="M 141 145 L 359 145 L 359 363 L 141 363 Z M 141 145 "/>
</clipPath>
<clipPath id="clip3">
  <path d="M 83.332031 0 L 416.667969 0 C 462.691406 0 500 37.308594 500 83.332031 L 500 416.667969 C 500 462.691406 462.691406 500 416.667969 500 L 83.332031 500 C 37.308594 500 0 462.691406 0 416.667969 L 0 83.332031 C 0 37.308594 37.308594 0 83.332031 0 Z M 83.332031 0 "/>
</clipPath>
<clipPath id="clip4">
  <path d="M 39 43 L 461 43 L 461 466 L 39 466 Z M 39 43 "/>
</clipPath>
<clipPath id="clip5">
  <path d="M 83.332031 0 L 416.667969 0 C 462.691406 0 500 37.308594 500 83.332031 L 500 416.667969 C 500 462.691406 462.691406 500 416.667969 500 L 83.332031 500 C 37.308594 500 0 462.691406 0 416.667969 L 0 83.332031 C 0 37.308594 37.308594 0 83.332031 0 Z M 83.332031 0 "/>
</clipPath>
<clipPath id="clip6">
  <path d="M 214 194 L 286 194 L 286 318 L 214 318 Z M 214 194 "/>
</clipPath>
<clipPath id="clip7">
  <path d="M 83.332031 0 L 416.667969 0 C 462.691406 0 500 37.308594 500 83.332031 L 500 416.667969 C 500 462.691406 462.691406 500 416.667969 500 L 83.332031 500 C 37.308594 500 0 462.691406 0 416.667969 L 0 83.332031 C 0 37.308594 37.308594 0 83.332031 0 Z M 83.332031 0 "/>
</clipPath>
</defs>
<g id="surface1">
<g clip-path="url(#clip1)" clip-rule="nonzero">
<path style=" stroke:none;fill-rule:nonzero;fill:rgb(100%,100%,100%);fill-opacity:1;" d="M 83.332031 0 L 416.667969 0 C 462.691406 0 500 37.308594 500 83.332031 L 500 416.667969 C 500 462.691406 462.691406 500 416.667969 500 L 83.332031 500 C 37.308594 500 0 462.691406 0 416.667969 L 0 83.332031 C 0 37.308594 37.308594 0 83.332031 0 Z M 83.332031 0 "/>
<path style=" stroke:none;fill-rule:nonzero;fill:rgb(43.921569%,16.078432%,38.82353%);fill-opacity:0.14902;" d="M 353.164062 -53.582031 L 348.257812 15.925781 L 392.953125 -27.214844 L 411.523438 -45.140625 L 406.949219 -19.742188 L 392.773438 58.839844 L 411.578125 69.6875 L 415.941406 72.199219 L 415.746094 77.230469 L 414.101562 119.011719 L 456.769531 190.039062 L 563.109375 316.332031 L 564.152344 317.570312 L 564.65625 319.101562 L 582.925781 374.691406 L 583.894531 377.652344 L 582.691406 380.527344 L 557.480469 440.398438 L 555.507812 445.078125 L 550.449219 445.476562 L 495.746094 449.753906 L 491.878906 450.058594 L 489.160156 447.296875 L 437.636719 395.019531 L 285.644531 347.25 L 297.535156 484.179688 L 297.941406 488.914062 L 294.074219 491.683594 L 245.492188 526.359375 L 243.710938 527.628906 L 241.535156 527.863281 L 152.027344 537.449219 L 148.105469 537.875 L 145.289062 535.097656 L 88.484375 479.117188 L 41.152344 475.871094 L 37.191406 475.601562 L 34.910156 472.347656 L 2.863281 426.734375 L -46.214844 394.671875 L -51.726562 391.074219 L -49.503906 384.871094 L -18.691406 299.128906 L -35.644531 270.800781 L -38.011719 266.835938 L -35.914062 262.726562 L -7.332031 206.828125 L -6.039062 204.289062 L -3.457031 203.085938 L 18.425781 192.796875 L 16.871094 162.5 L 16.730469 159.871094 L 18.132812 157.640625 L 43.855469 116.640625 L 45.839844 113.46875 L 49.535156 112.851562 L 83.699219 107.113281 L 96.523438 77.097656 L 97.28125 75.324219 L 98.738281 74.0625 L 130.484375 46.628906 L 133.535156 43.984375 L 137.507812 44.75 L 240.113281 64.492188 L 338.320312 -59.34375 L 355.0625 -80.453125 Z M 250.03125 78.816406 L 246.890625 82.78125 L 241.933594 81.820312 L 138.320312 61.875 L 111.09375 85.417969 L 106.714844 95.652344 L 106.707031 95.652344 L 95.449219 122.039062 L 91.179688 122.761719 L 55.980469 128.664062 L 33.644531 164.265625 L 34.195312 175.128906 L 34.179688 175.136719 L 34.324219 177.539062 L 34.945312 189.542969 L 35.058594 189.542969 L 35.878906 203.019531 L 30.777344 205.421875 L 6.203125 216.953125 L -18.96875 266.195312 L -2.359375 293.960938 L -0.332031 297.347656 L -1.667969 301.058594 L -31.59375 384.316406 L 13.320312 413.664062 L 14.65625 414.542969 L 15.574219 415.84375 L 46.257812 459.511719 L 92.714844 462.710938 L 95.800781 462.921875 L 98 465.085938 L 154.175781 520.460938 L 237.574219 511.523438 L 280.515625 480.875 L 267.96875 336.296875 L 266.886719 323.894531 L 278.765625 327.621094 L 444.621094 379.746094 L 446.597656 380.363281 L 448.054688 381.84375 L 498.300781 432.828125 L 544.074219 429.25 L 566.113281 376.921875 L 549.316406 325.820312 L 443.601562 200.285156 L 443.179688 199.773438 L 442.839844 199.203125 L 398.542969 125.464844 L 397.257812 123.332031 L 397.355469 120.839844 L 398.894531 81.609375 L 379.378906 70.351562 L 374.292969 67.421875 L 375.332031 61.652344 L 385.960938 2.703125 L 344.214844 43.019531 L 328.582031 58.105469 L 330.109375 36.433594 L 334.644531 -27.890625 Z M 250.03125 78.816406 "/>
</g>
<g clip-path="url(#clip2)" clip-rule="nonzero">
<g clip-path="url(#clip3)" clip-rule="nonzero">
<path style=" stroke:none;fill-rule:nonzero;fill:rgb(43.921569%,16.078432%,38.82353%);fill-opacity:1;" d="M 250 362.5 C 310.035156 362.5 358.332031 314.203125 358.332031 254.167969 C 358.332031 194.132812 310.035156 145.832031 250 145.832031 C 189.964844 145.832031 141.667969 194.132812 141.667969 254.167969 C 141.667969 314.203125 189.964844 362.5 250 362.5 Z M 250 362.5 "/>
</g>
</g>
<g clip-path="url(#clip4)" clip-rule="nonzero">
<g clip-path="url(#clip5)" clip-rule="nonzero">
<path style="fill:none;stroke-width:2;stroke-linecap:butt;stroke-linejoin:miter;stroke:rgb(43.921569%,16.078432%,38.82353%);stroke-opacity:0.301961;stroke-miterlimit:4;" d="M 30 16.5 C 37.756406 16.5 44.000156 22.743281 44.000156 30.500156 C 44.000156 38.256563 37.756406 44.499844 30 44.499844 C 22.243594 44.499844 15.999844 38.256563 15.999844 30.500156 C 15.999844 22.743281 22.243594 16.5 30 16.5 Z M 30 16.5 " transform="matrix(8.333333,0,0,8.333333,0,0)"/>
</g>
</g>
<g clip-path="url(#clip6)" clip-rule="nonzero">
<g clip-path="url(#clip7)" clip-rule="nonzero">
<path style=" stroke:none;fill-rule:nonzero;fill:rgb(100%,100%,100%);fill-opacity:1;" d="M 244.59375 317.367188 L 244.59375 301.964844 L 256.460938 301.964844 L 256.460938 317.367188 Z M 244.59375 210.367188 L 244.59375 194.898438 L 256.460938 194.898438 L 256.460938 210.367188 Z M 251.460938 306.167969 C 244.972656 306.167969 239.125 305.011719 233.925781 302.699219 C 228.773438 300.34375 224.527344 297.035156 221.191406 292.765625 C 217.859375 288.457031 215.683594 283.390625 214.660156 277.566406 L 226.328125 275.632812 C 227.75 281.542969 230.75 286.234375 235.328125 289.699219 C 239.949219 293.167969 245.503906 294.898438 251.992188 294.898438 C 258.527344 294.898438 263.816406 293.324219 267.859375 290.167969 C 271.90625 287.011719 273.925781 282.945312 273.925781 277.964844 C 273.925781 274.324219 272.839844 271.390625 270.660156 269.167969 C 268.527344 266.945312 264.925781 265.054688 259.859375 263.5 L 237.925781 256.699219 C 224.816406 252.609375 218.261719 244.789062 218.261719 233.234375 C 218.261719 227.8125 219.570312 223.078125 222.191406 219.035156 C 224.859375 214.945312 228.570312 211.789062 233.328125 209.566406 C 238.125 207.300781 243.703125 206.1875 250.058594 206.234375 C 256.238281 206.277344 261.75 207.433594 266.59375 209.699219 C 271.4375 211.921875 275.4375 215.121094 278.59375 219.300781 C 281.792969 223.476562 283.949219 228.476562 285.058594 234.300781 L 273.058594 236.5 C 272.4375 232.722656 271.058594 229.410156 268.925781 226.566406 C 266.839844 223.722656 264.171875 221.523438 260.925781 219.964844 C 257.683594 218.367188 254.039062 217.542969 249.992188 217.5 C 246.214844 217.457031 242.816406 218.078125 239.792969 219.367188 C 236.816406 220.65625 234.460938 222.457031 232.726562 224.765625 C 230.992188 227.078125 230.125 229.722656 230.125 232.699219 C 230.125 235.945312 231.328125 238.699219 233.726562 240.964844 C 236.171875 243.1875 239.992188 245.101562 245.191406 246.699219 L 263.191406 252.035156 C 271.105469 254.390625 276.816406 257.566406 280.328125 261.566406 C 283.839844 265.523438 285.59375 270.8125 285.59375 277.433594 C 285.59375 283.167969 284.171875 288.1875 281.328125 292.5 C 278.527344 296.8125 274.550781 300.167969 269.394531 302.566406 C 264.28125 304.964844 258.304688 306.167969 251.460938 306.167969 Z M 251.460938 306.167969 "/>
</g>
</g>
</g>
</svg>

<svg xmlns="http://www.w3.org/2000/svg" width="500" height="500" viewBox="0 0 500 500"><defs><clipPath id="byzusd_svg-a"><path d="M83.332 0h333.336C462.691 0 500 37.309 500 83.332v333.336C500 462.691 462.691 500 416.668 500H83.332C37.309 500 0 462.691 0 416.668V83.332C0 37.309 37.309 0 83.332 0m0 0"/></clipPath><clipPath id="byzusd_svg-b"><path d="M141 145h218v218H141Zm0 0"/></clipPath><clipPath id="byzusd_svg-c"><path d="M83.332 0h333.336C462.691 0 500 37.309 500 83.332v333.336C500 462.691 462.691 500 416.668 500H83.332C37.309 500 0 462.691 0 416.668V83.332C0 37.309 37.309 0 83.332 0m0 0"/></clipPath><clipPath id="byzusd_svg-d"><path d="M39 43h422v423H39Zm0 0"/></clipPath><clipPath id="byzusd_svg-e"><path d="M83.332 0h333.336C462.691 0 500 37.309 500 83.332v333.336C500 462.691 462.691 500 416.668 500H83.332C37.309 500 0 462.691 0 416.668V83.332C0 37.309 37.309 0 83.332 0m0 0"/></clipPath><clipPath id="byzusd_svg-f"><path d="M214 194h72v124h-72Zm0 0"/></clipPath><clipPath id="byzusd_svg-g"><path d="M83.332 0h333.336C462.691 0 500 37.309 500 83.332v333.336C500 462.691 462.691 500 416.668 500H83.332C37.309 500 0 462.691 0 416.668V83.332C0 37.309 37.309 0 83.332 0m0 0"/></clipPath></defs><g clip-path="url(#byzusd_svg-a)"><path d="M83.332 0h333.336C462.691 0 500 37.309 500 83.332v333.336C500 462.691 462.691 500 416.668 500H83.332C37.309 500 0 462.691 0 416.668V83.332C0 37.309 37.309 0 83.332 0m0 0" style="stroke:none;fill-rule:nonzero;fill:#fff;fill-opacity:1"/><path d="m353.164-53.582-4.906 69.508 44.695-43.14 18.57-17.927-4.574 25.399-14.176 78.582 18.805 10.847 4.363 2.512-.195 5.031-1.644 41.782 42.668 71.027 106.34 126.293 1.042 1.238.504 1.532 18.27 55.59.969 2.96-1.204 2.875-25.21 59.871-1.973 4.68-5.059.399-54.703 4.277-3.867.305-2.719-2.762-51.523-52.277-151.992-47.77 11.89 136.93.406 4.734-3.867 2.77-48.582 34.675-1.781 1.27-2.176.234-89.508 9.586-3.922.426-2.816-2.777-56.805-55.98-47.332-3.247-3.96-.27-2.282-3.253-32.047-45.614-49.078-32.062-5.512-3.598 2.223-6.203 30.813-85.742-16.954-28.328-2.367-3.965 2.098-4.11 28.582-55.898 1.293-2.539 2.582-1.203 21.883-10.29L16.87 162.5l-.14-2.629 1.402-2.23 25.722-41 1.985-3.172 3.695-.617 34.164-5.739 12.824-30.015.758-1.774 1.457-1.261 31.746-27.434 3.051-2.645 3.973.766 102.605 19.742L338.32-59.344l16.743-21.11ZM250.031 78.816l-3.14 3.965-4.957-.96L138.32 61.874l-27.226 23.543-4.38 10.234h-.007L95.449 122.04l-4.27.723-35.199 5.902-22.335 35.602.55 10.863-.015.008.144 2.402.621 12.004h.114l.82 13.477-5.102 2.402-24.574 11.531-25.172 49.242 16.61 27.766 2.027 3.387-1.336 3.71-29.926 83.258 44.914 29.348 1.336.879.918 1.3 30.684 43.669 46.457 3.199 3.086.21L98 465.087l56.176 55.375 83.398-8.938 42.942-30.648-12.547-144.578-1.082-12.402 11.879 3.726 165.855 52.125 1.977.617 1.457 1.48 50.246 50.985 45.773-3.578 22.04-52.328-16.798-51.102-105.714-125.535-.422-.512-.34-.57-44.297-73.738-1.285-2.133.097-2.492 1.54-39.23-19.516-11.258-5.086-2.93 1.039-5.77 10.629-58.949-41.746 40.317-15.633 15.085 1.527-21.671 4.536-64.325Zm0 0" style="stroke:none;fill-rule:nonzero;fill:#702963;fill-opacity:.14902"/></g><g clip-path="url(#byzusd_svg-b)"><g clip-path="url(#byzusd_svg-c)"><path d="M250 362.5c60.035 0 108.332-48.297 108.332-108.332S310.035 145.832 250 145.832s-108.332 48.3-108.332 108.336c0 60.035 48.297 108.332 108.332 108.332m0 0" style="stroke:none;fill-rule:nonzero;fill:#702963;fill-opacity:1"/></g></g><g clip-path="url(#byzusd_svg-d)"><g clip-path="url(#byzusd_svg-e)"><path d="M30 16.5c7.756 0 14 6.243 14 14s-6.244 14-14 14-14-6.243-14-14 6.244-14 14-14Zm0 0" style="fill:none;stroke-width:2;stroke-linecap:butt;stroke-linejoin:miter;stroke:#702963;stroke-opacity:.301961;stroke-miterlimit:4" transform="scale(8.33333)"/></g></g><g clip-path="url(#byzusd_svg-f)"><g clip-path="url(#byzusd_svg-g)"><path d="M244.594 317.367v-15.402h11.867v15.402Zm0-107v-15.469h11.867v15.47Zm6.867 95.801c-6.488 0-12.336-1.156-17.535-3.469q-7.73-3.531-12.735-9.933-4.997-6.463-6.53-15.2l11.667-1.933q2.133 8.867 9 14.066 6.932 5.202 16.664 5.2 9.803.002 15.867-4.731 6.069-4.733 6.067-12.203.002-5.461-3.266-8.797-3.2-3.335-10.8-5.668l-21.934-6.8q-19.665-6.133-19.664-23.466-.001-8.134 3.93-14.199 4-6.135 11.136-9.469c4.797-2.265 10.375-3.379 16.73-3.332q9.27.066 16.536 3.465 7.266 3.333 12 9.602 4.8 6.264 6.465 15l-12 2.199q-.933-5.667-4.133-9.934-3.13-4.264-8-6.601-4.863-2.399-10.934-2.465-5.665-.065-10.199 1.867-4.465 1.935-7.066 5.399-2.602 3.469-2.602 7.933.002 4.868 3.602 8.266c2.445 2.222 6.265 4.137 11.464 5.734l18 5.336q11.87 3.532 17.137 9.531 5.267 5.936 5.266 15.868c0 5.734-1.422 10.753-4.266 15.066q-4.2 6.47-11.933 10.066-7.67 3.6-17.934 3.602m0 0" style="stroke:none;fill-rule:nonzero;fill:#fff;fill-opacity:1"/></g></g></svg>
